assets/plug-icon.svg

<svg fill="none" height="41" viewBox="0 0 41 41" width="41" xmlns="http://www.w3.org/2000/svg" xmlns:xlink="http://www.w3.org/1999/xlink"><clipPath id="a"><path d="m12.5996 10.5h15.8v21.0667h-15.8z"/></clipPath><rect fill="#131117" height="40" rx="20" width="40" x=".5" y=".5"/><g clip-path="url(#a)"><path d="m16.5496 10.5c-.7283 0-1.3167.5884-1.3167 1.3167v3.95h2.6334v-3.95c0-.7283-.5884-1.3167-1.3167-1.3167zm7.9 0c-.7283 0-1.3167.5884-1.3167 1.3167v3.95h2.6334v-3.95c0-.7283-.5884-1.3167-1.3167-1.3167zm-10.5333 6.5833c-.7283 0-1.3167.5884-1.3167 1.3167s.5884 1.3167 1.3167 1.3167v1.3166c0 3.1847 2.263 5.8427 5.2666 6.4517v2.765c0 .7283.5884 1.3167 1.3167 1.3167s1.3167-.5884 1.3167-1.3167v-2.765c3.0036-.609 5.2666-3.267 5.2666-6.4517v-1.3166c.7283 0 1.3167-.5884 1.3167-1.3167s-.5884-1.3167-1.3167-1.3167z" fill="#f5f5f5"/></g></svg>

<svg width="41" height="41" viewBox="0 0 41 41" fill="none" xmlns="http://www.w3.org/2000/svg">
<rect x="0.5" y="0.5" width="40" height="40" rx="20" fill="#131117"/>
<g clip-path="url(#clip0_2315_96)">
<path d="M16.5496 10.5C15.8213 10.5 15.2329 11.0884 15.2329 11.8167V15.7667H17.8663V11.8167C17.8663 11.0884 17.2779 10.5 16.5496 10.5ZM24.4496 10.5C23.7213 10.5 23.1329 11.0884 23.1329 11.8167V15.7667H25.7663V11.8167C25.7663 11.0884 25.1779 10.5 24.4496 10.5ZM13.9163 17.0833C13.188 17.0833 12.5996 17.6717 12.5996 18.4C12.5996 19.1283 13.188 19.7167 13.9163 19.7167V21.0333C13.9163 24.218 16.1793 26.876 19.1829 27.485V30.25C19.1829 30.9783 19.7713 31.5667 20.4996 31.5667C21.2279 31.5667 21.8163 30.9783 21.8163 30.25V27.485C24.8199 26.876 27.0829 24.218 27.0829 21.0333V19.7167C27.8112 19.7167 28.3996 19.1283 28.3996 18.4C28.3996 17.6717 27.8112 17.0833 27.0829 17.0833H13.9163Z" fill="#F5F5F5"/>
</g>
<defs>
<clipPath id="clip0_2315_96">
<rect width="15.8" height="21.0667" fill="white" transform="translate(12.5996 10.5)"/>
</clipPath>
</defs>
</svg>
